src/asset/img/radio/play.svg

<?xml version="1.0" encoding="UTF-8" standalone="no"?>
<svg
   height="19.267431"
   width="19.0464"
   version="1.1"
   id="svg1482"
   sodipodi:docname="play.svg"
   inkscape:version="1.1.2 (0a00cf5339, 2022-02-04)"
   xmlns:inkscape="http://www.inkscape.org/namespaces/inkscape"
   xmlns:sodipodi="http://sodipodi.sourceforge.net/DTD/sodipodi-0.dtd"
   xmlns:xlink="http://www.w3.org/1999/xlink"
   xmlns="http://www.w3.org/2000/svg"
   xmlns:svg="http://www.w3.org/2000/svg">
  <sodipodi:namedview
     id="namedview1484"
     pagecolor="#505050"
     bordercolor="#eeeeee"
     borderopacity="1"
     inkscape:pageshadow="0"
     inkscape:pageopacity="0"
     inkscape:pagecheckerboard="0"
     showgrid="false"
     inkscape:current-layer="svg1482" />
  <g
     transform="translate(1.9673,1.7383304)"
     id="g1444">
    <use
       height="25.1"
       transform="matrix(0.768,0,0,0.768,-1.9673,-1.7477)"
       width="24.799999"
       xlink:href="#sprite0"
       id="use1440"
       x="0"
       y="0" />
    <use
       height="10.05"
       transform="translate(5.9,3.1)"
       width="5"
       xlink:href="#shape2"
       id="use1442"
       x="0"
       y="0" />
  </g>
  <defs
     id="defs1480">
    <g
       id="sprite0"
       transform="translate(-4.6,-4.3)">
      <use
         height="24.75"
         transform="translate(4.6,4.65)"
         width="24.799999"
         xlink:href="#shape0"
         id="use1446"
         x="0"
         y="0" />
      <use
         height="50"
         transform="matrix(-0.24,0,0,0.24,28.0998,4.3122)"
         width="50"
         xlink:href="#sprite1"
         id="use1448"
         x="0"
         y="0" />
    </g>
    <g
       id="shape0"
       transform="translate(-4.6,-4.65)">
      <path
         d="m 4.6,17.05 q 0,-5.15 3.65,-8.8 3.6,-3.65 8.75,-3.6 5.15,-0.05 8.8,3.6 3.6,3.65 3.6,8.8 0,5.1 -3.6,8.75 -3.65,3.6 -8.8,3.6 -5.15,0 -8.75,-3.6 Q 4.6,22.15 4.6,17.05"
         fill="url(#gradient0)"
         fill-rule="evenodd"
         stroke="none"
         id="path1451" />
      <path
         d="M 10.3,23.75 Q 7.5,20.95 7.5,17 q 0,-4 2.8,-6.75 2.8,-2.8 6.75,-2.8 3.95,0 6.75,2.8 2.8,2.8 2.85,6.75 -0.05,3.95 -2.85,6.75 -2.8,2.8 -6.75,2.8 -3.95,0 -6.75,-2.8"
         fill="url(#gradient1)"
         fill-rule="evenodd"
         stroke="none"
         id="path1453" />
    </g>
    <linearGradient
       gradientTransform="matrix(-0.0131,0.0068,-0.0054,-0.0104,-154.8,-314.95)"
       gradientUnits="userSpaceOnUse"
       id="gradient0"
       spreadMethod="pad"
       x1="-819.20001"
       x2="819.20001">
      <stop
         offset="0.0"
         stop-color="#8f0149"
         id="stop1456" />
      <stop
         offset="1.0"
         stop-color="#ff3399"
         id="stop1458" />
    </linearGradient>
    <linearGradient
       gradientTransform="matrix(-0.0035,0.0108,-0.0086,-0.0027,-257.75,-70.4)"
       gradientUnits="userSpaceOnUse"
       id="gradient1"
       spreadMethod="pad"
       x1="-819.20001"
       x2="819.20001">
      <stop
         offset="0.0"
         stop-color="#ff8ac5"
         id="stop1461" />
      <stop
         offset="1.0"
         stop-color="#ffffff"
         id="stop1463" />
    </linearGradient>
    <g
       id="sprite1"
       transform="translate(25,24.95)">
      <use
         height="50"
         transform="translate(-25,-24.95)"
         width="50"
         xlink:href="#shape1"
         id="use1466"
         x="0"
         y="0" />
    </g>
    <g
       id="shape1"
       transform="translate(25,24.95)">
      <path
         d="m 0,-24.95 q 10.3,0 17.6,7.3 7.35,7.35 7.4,17.7 -0.05,10.3 -7.4,17.6 Q 10.3,25 0,25.05 -10.35,25 -17.7,17.65 -25,10.35 -25,0.05 q 0,-10.35 7.3,-17.7 7.35,-7.3 17.7,-7.3"
         fill="url(#gradient2)"
         fill-rule="evenodd"
         stroke="none"
         id="path1469" />
    </g>
    <radialGradient
       cx="0"
       cy="0"
       gradientTransform="scale(0.0307)"
       gradientUnits="userSpaceOnUse"
       id="gradient2"
       r="819.20001"
       spreadMethod="pad">
      <stop
         offset="0.33725490196078434"
         stop-color="#ffffff"
         id="stop1472" />
      <stop
         offset="1.0"
         stop-color="#ffffff"
         stop-opacity="0.0"
         id="stop1474" />
    </radialGradient>
    <g
       id="shape2"
       transform="translate(-5.9,-3.1)">
      <path
         d="m 10.9,8.1 -5,5.05 V 3.1 l 5,5"
         fill="#ff3399"
         fill-rule="evenodd"
         stroke="none"
         id="path1477" />
    </g>
  </defs>
</svg>

<?xml version="1.0" encoding="UTF-8" standalone="no"?>
<svg xmlns:xlink="http://www.w3.org/1999/xlink" height="26.05px" width="25.75px" xmlns="http://www.w3.org/2000/svg">
  <g transform="matrix(1.0, 0.0, 0.0, 1.0, 5.3, 5.2)">
    <use height="25.1" transform="matrix(0.768, 0.0, 0.0, 0.768, -1.9673, -1.7477)" width="24.8" xlink:href="#sprite0"/>
    <use height="10.05" transform="matrix(1.0, 0.0, 0.0, 1.0, 5.9, 3.1)" width="5.0" xlink:href="#shape2"/>
  </g>
  <defs>
    <g id="sprite0" transform="matrix(1.0, 0.0, 0.0, 1.0, -4.6, -4.3)">
      <use height="24.75" transform="matrix(1.0, 0.0, 0.0, 1.0, 4.6, 4.65)" width="24.8" xlink:href="#shape0"/>
      <use height="50.0" transform="matrix(-0.24, 0.0, 0.0, 0.24, 28.0998, 4.3122)" width="50.0" xlink:href="#sprite1"/>
    </g>
    <g id="shape0" transform="matrix(1.0, 0.0, 0.0, 1.0, -4.6, -4.65)">
      <path d="M4.6 17.05 Q4.6 11.9 8.25 8.25 11.85 4.6 17.0 4.65 22.15 4.6 25.8 8.25 29.4 11.9 29.4 17.05 29.4 22.15 25.8 25.8 22.15 29.4 17.0 29.4 11.85 29.4 8.25 25.8 4.6 22.15 4.6 17.05" fill="url(#gradient0)" fill-rule="evenodd" stroke="none"/>
      <path d="M10.3 23.75 Q7.5 20.95 7.5 17.0 7.5 13.0 10.3 10.25 13.1 7.45 17.05 7.45 21.0 7.45 23.8 10.25 26.6 13.05 26.65 17.0 26.6 20.95 23.8 23.75 21.0 26.55 17.05 26.55 13.1 26.55 10.3 23.75" fill="url(#gradient1)" fill-rule="evenodd" stroke="none"/>
    </g>
    <linearGradient gradientTransform="matrix(-0.0131, 0.0068, -0.0054, -0.0104, -154.8, -314.95)" gradientUnits="userSpaceOnUse" id="gradient0" spreadMethod="pad" x1="-819.2" x2="819.2">
      <stop offset="0.0" stop-color="#8f0149"/>
      <stop offset="1.0" stop-color="#ff3399"/>
    </linearGradient>
    <linearGradient gradientTransform="matrix(-0.0035, 0.0108, -0.0086, -0.0027, -257.75, -70.4)" gradientUnits="userSpaceOnUse" id="gradient1" spreadMethod="pad" x1="-819.2" x2="819.2">
      <stop offset="0.0" stop-color="#ff8ac5"/>
      <stop offset="1.0" stop-color="#ffffff"/>
    </linearGradient>
    <g id="sprite1" transform="matrix(1.0, 0.0, 0.0, 1.0, 25.0, 24.95)">
      <use height="50.0" transform="matrix(1.0, 0.0, 0.0, 1.0, -25.0, -24.95)" width="50.0" xlink:href="#shape1"/>
    </g>
    <g id="shape1" transform="matrix(1.0, 0.0, 0.0, 1.0, 25.0, 24.95)">
      <path d="M0.0 -24.95 Q10.3 -24.95 17.6 -17.65 24.95 -10.3 25.0 0.05 24.95 10.35 17.6 17.65 10.3 25.0 0.0 25.05 -10.35 25.0 -17.7 17.65 -25.0 10.35 -25.0 0.05 -25.0 -10.3 -17.7 -17.65 -10.35 -24.95 0.0 -24.95" fill="url(#gradient2)" fill-rule="evenodd" stroke="none"/>
    </g>
    <radialGradient cx="0" cy="0" gradientTransform="matrix(0.0307, 0.0, 0.0, 0.0307, 0.0, 0.0)" gradientUnits="userSpaceOnUse" id="gradient2" r="819.2" spreadMethod="pad">
      <stop offset="0.33725490196078434" stop-color="#ffffff"/>
      <stop offset="1.0" stop-color="#ffffff" stop-opacity="0.0"/>
    </radialGradient>
    <g id="shape2" transform="matrix(1.0, 0.0, 0.0, 1.0, -5.9, -3.1)">
      <path d="M10.9 8.1 L5.9 13.15 5.9 3.1 10.9 8.1" fill="#ff3399" fill-rule="evenodd" stroke="none"/>
    </g>
  </defs>
</svg>
